packages/ui-solid/icons/chevron_down_28.svg

<svg width="28" height="28" viewBox="0 0 28 28" fill="none" xmlns="http://www.w3.org/2000/svg">
<path fill-rule="evenodd" clip-rule="evenodd" d="M4.29289 8.80435C4.68342 8.39855 5.31658 8.39855 5.70711 8.80435L14 17.4217L22.2929 8.80435C22.6834 8.39855 23.3166 8.39855 23.7071 8.80435C24.0976 9.21016 24.0976 9.8681 23.7071 10.2739L15.4142 18.8913C14.6332 19.7029 13.3668 19.7029 12.5858 18.8913L4.29289 10.2739C3.90237 9.8681 3.90237 9.21016 4.29289 8.80435Z" fill="#007AFF"/>
</svg>

<svg xmlns="http://www.w3.org/2000/svg" width="28" height="28" fill="none"><path fill="currentColor" fill-rule="evenodd" d="M4.293 8.804a.974.974 0 0 1 1.414 0L14 17.422l8.293-8.618a.974.974 0 0 1 1.414 0 1.07 1.07 0 0 1 0 1.47l-8.293 8.617a1.947 1.947 0 0 1-2.828 0l-8.293-8.617a1.07 1.07 0 0 1 0-1.47" clip-rule="evenodd"/></svg>
